svg/FoundationIcons/fi-tablet-portrait.svg

<svg xmlns="http://www.w3.org/2000/svg" viewBox="0 0 100 100" enable-background="new 0 0 100 100"><path fill="#231f20" d="m77.919 7.434c-.043 0-.084.011-.127.013v-.013h-55.838v.013c-1.616.068-2.908 1.389-2.908 3.02v79.06c0 1.633 1.292 2.954 2.908 3.02v.013h55.838v-.013c.043.002.083.013.127.013 1.676 0 3.035-1.358 3.035-3.035v-79.06c0-1.677-1.359-3.035-3.035-3.035m-28.05 82.64c-1.372 0-2.484-1.113-2.484-2.485 0-1.372 1.112-2.484 2.484-2.484 1.372 0 2.484 1.112 2.484 2.484 0 1.372-1.112 2.485-2.484 2.485m21.12-7.463h-41.994v-65.22h41.995v65.22"/></svg>

<?xml version="1.0" encoding="utf-8"?>
<!-- Generator: Adobe Illustrator 17.0.0, SVG Export Plug-In . SVG Version: 6.00 Build 0)  -->
<!DOCTYPE svg PUBLIC "-//W3C//DTD SVG 1.1//EN" "http://www.w3.org/Graphics/SVG/1.1/DTD/svg11.dtd">
<svg version="1.1" id="Layer_1" xmlns="http://www.w3.org/2000/svg" xmlns:xlink="http://www.w3.org/1999/xlink" x="0px" y="0px"
	 width="100px" height="100px" viewBox="0 0 100 100" enable-background="new 0 0 100 100" xml:space="preserve">
<g>
	<path fill="#231F20" d="M77.919,7.434c-0.043,0-0.084,0.011-0.127,0.013V7.434H21.954v0.013c-1.616,0.068-2.908,1.389-2.908,3.022
		v79.062c0,1.633,1.292,2.954,2.908,3.022v0.013h55.838v-0.013c0.043,0.002,0.083,0.013,0.127,0.013
		c1.676,0,3.035-1.358,3.035-3.035V10.469C80.954,8.792,79.595,7.434,77.919,7.434z M49.873,90.072
		c-1.372,0-2.484-1.113-2.484-2.485c0-1.372,1.112-2.484,2.484-2.484c1.372,0,2.484,1.112,2.484,2.484
		C52.357,88.959,51.245,90.072,49.873,90.072z M70.997,82.609H29.003V17.391h41.995V82.609z"/>
</g>
</svg>
